docs/.gitbook/assets/icon-new-folder-16@light.svg

<svg width="32" height="32" viewBox="0 0 16 16" fill="none" xmlns="http://www.w3.org/2000/svg">
<rect x="0" y="0" width="16" height="16" fill="#fff"/>
<path fill-rule="evenodd" clip-rule="evenodd" d="M3.75 2.5C3.05964 2.5 2.5 3.05964 2.5 3.75V4H7.97217L7.03319 2.92687C6.79582 2.6556 6.45292 2.5 6.09246 2.5H3.75ZM9.96533 4L8.16205 1.93911L7.59762 2.43299L8.16205 1.93911C7.63986 1.34232 6.88546 1 6.09246 1H3.75C2.23122 1 1 2.23122 1 3.75V4.75V12.25C1 13.7688 2.23122 15 3.75 15H6.25C6.66421 15 7 14.6642 7 14.25C7 13.8358 6.66421 13.5 6.25 13.5H3.75C3.05964 13.5 2.5 12.9404 2.5 12.25V5.5H9.625H13.25C13.3881 5.5 13.5 5.61193 13.5 5.75V6.25C13.5 6.66421 13.8358 7 14.25 7C14.6642 7 15 6.66421 15 6.25V5.75C15 4.7835 14.2165 4 13.25 4H9.96533ZM12 9C12.4142 9 12.75 9.33579 12.75 9.75V11.25H14.25C14.6642 11.25 15 11.5858 15 12C15 12.4142 14.6642 12.75 14.25 12.75H12.75V14.25C12.75 14.6642 12.4142 15 12 15C11.5858 15 11.25 14.6642 11.25 14.25V12.75H9.75C9.33579 12.75 9 12.4142 9 12C9 11.5858 9.33579 11.25 9.75 11.25H11.25V9.75C11.25 9.33579 11.5858 9 12 9Z" fill="#000"/>
</svg>

<svg xmlns="http://www.w3.org/2000/svg" width="32" height="32" fill="none" viewBox="0 0 16 16"><path fill="#fff" d="M0 0h16v16H0z"/><path fill="#000" fill-rule="evenodd" d="M3.75 2.5c-.69 0-1.25.56-1.25 1.25V4h5.472l-.939-1.073a1.25 1.25 0 0 0-.94-.427zM9.965 4 8.162 1.94l-.564.493.564-.494A2.75 2.75 0 0 0 6.092 1H3.75A2.75 2.75 0 0 0 1 3.75v8.5A2.75 2.75 0 0 0 3.75 15h2.5a.75.75 0 0 0 0-1.5h-2.5c-.69 0-1.25-.56-1.25-1.25V5.5h10.75a.25.25 0 0 1 .25.25v.5a.75.75 0 0 0 1.5 0v-.5A1.75 1.75 0 0 0 13.25 4zM12 9a.75.75 0 0 1 .75.75v1.5h1.5a.75.75 0 0 1 0 1.5h-1.5v1.5a.75.75 0 0 1-1.5 0v-1.5h-1.5a.75.75 0 0 1 0-1.5h1.5v-1.5A.75.75 0 0 1 12 9" clip-rule="evenodd"/></svg>
